Origami/64x64/apps/applets-screenshooter.svg

<svg xmlns="http://www.w3.org/2000/svg" width="64" height="64" version="1">
 <path style="opacity:0.2" d="m 4,50 0,2 c 0,1.662 1.338,3 3,3 l 50,0 c 1.662,0 3,-1.338 3,-3 l 0,-2 c 0,1.662 -1.338,3 -3,3 L 7,53 C 5.338,53 4,51.662 4,50 Z"/>
 <rect style="fill:#325f78" width="44" height="56" x="-54" y="-60" rx="3" ry="3" transform="matrix(0,-1,-1,0,0,0)"/>
 <rect style="opacity:0.2" width="36" height="48" x="-50" y="-56" rx="0" ry="0" transform="matrix(0,-1,-1,0,0,0)"/>
 <path style="opacity:0.1;fill:#ffffff" d="M 7 10 C 5.338 10 4 11.338 4 13 L 4 14 C 4 12.338 5.338 11 7 11 L 57 11 C 58.662 11 60 12.338 60 14 L 60 13 C 60 11.338 58.662 10 57 10 L 7 10 z"/>
 <path style="opacity:0.2;fill-rule:evenodd" d="M 63.958,45.852 A 16,16 0 0 1 48,61.004 16,16 0 0 1 32.042,46.156 16,16 0 0 0 32,47 16,16 0 0 0 48,63 16,16 0 0 0 64,47 16,16 0 0 0 63.95704,45.85156 Z"/>
 <circle style="fill:#4aa4e9;fill-rule:evenodd" cx="48" cy="46" r="16"/>
 <path style="fill:#ffffff" d="m 45,38 -1,1 -3.46875,0 C 39.000255,39 39,40.5 39,40.5 l 0,11 c 0,1.505988 1.53125,1.5 1.53125,1.5 L 55.5,53 c 1.499995,0 1.5,-1.5 1.5,-1.5 l 0,-11 C 57,38.999993 55.5,39 55.5,39 l -3.5,0 -1,-1 -6,0 z m 3,3 c 2.761334,0 5,2.238571 5,5 0,2.76143 -2.238666,5 -5,5 -2.761333,0 -5,-2.23857 -5,-5 0,-2.761429 2.238667,-5 5,-5 z m 0,2 c -1.656854,0 -3,1.343237 -3,3 0,1.656862 1.343146,3 3,3 1.656835,0 3,-1.343199 3,-3 0,-1.656844 -1.343165,-3 -3,-3 z"/>
</svg>

<svg width="64" height="64" version="1" xmlns="http://www.w3.org/2000/svg">
 <path d="m4 50v2c0 1.662 1.338 3 3 3h50c1.662 0 3-1.338 3-3v-2c0 1.662-1.338 3-3 3h-50c-1.662 0-3-1.338-3-3z" style="opacity:.2"/>
 <rect transform="matrix(0,-1,-1,0,0,0)" x="-54" y="-60" width="44" height="56" rx="3" ry="3" style="fill:#5f7c8a"/>
 <rect transform="matrix(0,-1,-1,0,0,0)" x="-50" y="-56" width="36" height="48" rx="0" ry="0" style="fill:#7f96a1"/>
 <path d="m7 10c-1.662 0-3 1.338-3 3v1c0-1.662 1.338-3 3-3h50c1.662 0 3 1.338 3 3v-1c0-1.662-1.338-3-3-3h-50z" style="fill:#ffffff;opacity:.1"/>
 <path d="M 63.958,45.852 A 16,16 0 0 1 48,61.004 16,16 0 0 1 32.042,46.156 16,16 0 0 0 32,47 16,16 0 0 0 48,63 16,16 0 0 0 64,47 16,16 0 0 0 63.95704,45.85156 Z" style="fill-rule:evenodd;opacity:.2"/>
 <circle cx="48" cy="46" r="16" style="fill-rule:evenodd;fill:#42a1cd"/>
 <path d="m45 38-1 1h-3.46875c-1.530995 0-1.53125 1.5-1.53125 1.5v11c0 1.505988 1.53125 1.5 1.53125 1.5h14.96875c1.499995 0 1.5-1.5 1.5-1.5v-11c0-1.500007-1.5-1.5-1.5-1.5h-3.5l-1-1zm3 3c2.761334 0 5 2.238571 5 5 0 2.76143-2.238666 5-5 5-2.761333 0-5-2.23857-5-5 0-2.761429 2.238667-5 5-5z" style="fill:#ffffff"/>
</svg>
